build/images/logo_mobile.svg

<?xml version="1.0" encoding="UTF-8"?>
<svg width="96px" height="47px" viewBox="0 0 96 47" version="1.1" xmlns="http://www.w3.org/2000/svg" xmlns:xlink="http://www.w3.org/1999/xlink">
    <!-- Generator: Sketch 63.1 (92452) - https://sketch.com -->
    <title>Logo Digift</title>
    <desc>Created with Sketch.</desc>
    <g id="Page-1" stroke="none" stroke-width="1" fill="none" fill-rule="evenodd">
        <g id="1-414" transform="translate(-18.000000, -30.000000)">
            <g id="1st">
                <g id="Logo-Digift" transform="translate(18.000000, 30.000000)">
                    <g id="Base">
                        <rect id="Blue" fill="#4740E3" x="33" y="9" width="63" height="38" rx="2.8173913"></rect>
                        <rect id="Green" fill="#00E0B4" x="0" y="0" width="63" height="39" rx="2.8173913"></rect>
                        <path d="M35.8173913,9 L63,9 L63,9 L63,36.1826087 C63,37.7386109 61.7386109,39 60.1826087,39 L33,39 L33,39 L33,11.8173913 C33,10.2613891 34.2613891,9 35.8173913,9 Z" id="Dark-green" fill="#00B8C0"></path>
                    </g>
                    <path d="M43.8075327,17 C44.324057,17 44.8024218,17.0410865 45.2426414,17.1232609 C45.682861,17.2054352 46.0761179,17.3081516 46.422424,17.431413 C46.7687301,17.5546745 47.0680749,17.6808689 47.3204675,17.81 C47.5728601,17.9391311 47.763619,18.0506517 47.8927501,18.1445652 C48.256665,18.4263058 48.3094905,18.7667371 48.0512284,19.1658696 L47.7342718,19.658913 C47.6051408,19.8584793 47.4584031,19.9729346 47.2940545,20.0022826 C47.1297058,20.0316306 46.9360121,19.9817398 46.7129675,19.8526087 C46.4429661,19.68826 46.0790567,19.5180444 45.6212284,19.3419565 C45.1634,19.1658687 44.5999274,19.0778261 43.9307936,19.0778261 C43.2499206,19.0778261 42.6453614,19.1922815 42.1170979,19.4211957 C41.5888344,19.6501098 41.1456867,19.9611937 40.7876414,20.3544565 C40.4295961,20.7477194 40.1566641,21.2084756 39.9688371,21.7367391 C39.78101,22.2650026 39.6870979,22.8226058 39.6870979,23.4095652 C39.6870979,24.0669598 39.7956838,24.6685842 40.0128588,25.2144565 C40.2300338,25.7603288 40.5264439,26.2269546 40.9020979,26.6143478 C41.277752,27.0017411 41.717965,27.3040207 42.2227501,27.5211957 C42.7275352,27.7383707 43.2733993,27.8469565 43.8603588,27.8469565 C44.3886223,27.8469565 44.8493786,27.7765224 45.2426414,27.6356522 C45.6359042,27.4947819 45.9675314,27.3363052 46.2375327,27.1602174 C46.5427516,26.9606512 46.8068794,26.7317404 47.029924,26.4734783 L47.029924,24.7302174 L47.029924,24.7302174 L44.9372929,24.7302174 C44.444247,24.7302174 44.1977277,24.4836981 44.1977277,23.9906522 L44.1977277,23.5152174 C44.1977277,23.0221714 44.444247,22.7756522 44.9372929,22.7756522 L48.3329675,22.7756522 C48.8142743,22.7756522 49.054924,23.0221714 49.054924,23.5152174 L49.054924,24.7302174 C49.054924,25.5075364 48.9901961,26.7202727 48.9202715,26.9948779 C48.7033011,27.8469565 47.8054554,28.5912248 47.3204675,28.8744858 C46.8354796,29.1577468 46.3720405,29.4234249 45.8138586,29.5765122 C45.2556767,29.7295995 44.0892748,29.9247826 43.4905762,29.9247826 C42.6570938,29.9247826 41.8705799,29.7692407 41.131011,29.4581522 C40.3914421,29.1470637 39.7399268,28.7097854 39.1764458,28.1463043 C38.6129647,27.5828233 38.1668822,26.90783 37.8381849,26.1213043 C37.5094876,25.3347787 37.3451414,24.4660917 37.3451414,23.5152174 C37.3451414,22.5878215 37.5065528,21.725004 37.8293805,20.9267391 C38.1522082,20.1284743 38.6012255,19.4388073 39.1764458,18.8577174 C39.751666,18.2766275 40.4325288,17.8217408 41.2190545,17.4930435 C42.0055801,17.1643462 42.8683976,17 43.8075327,17 Z M28.2086577,17.2113043 C28.6899644,17.2113043 28.9306142,17.4578236 28.9306142,17.9508696 L28.9306142,28.973913 C28.9306142,29.466959 28.6899644,29.7134783 28.2086577,29.7134783 L27.3986577,29.7134783 C26.9173509,29.7134783 26.6767011,29.466959 26.6767011,28.973913 L26.6767011,17.9508696 C26.6767011,17.4578236 26.9173509,17.2113043 27.3986577,17.2113043 L28.2086577,17.2113043 Z M57.7511904,17.2113043 C58.2324971,17.2113043 58.4731469,17.4578236 58.4731469,17.9508696 L58.4731469,28.973913 C58.4731469,29.466959 58.2324971,29.7134783 57.7511904,29.7134783 L56.9411904,29.7134783 C56.4598836,29.7134783 56.2192339,29.466959 56.2192339,28.973913 L56.2192339,17.9508696 C56.2192339,17.4578236 56.4598836,17.2113043 56.9411904,17.2113043 L57.7511904,17.2113043 Z M74.0720219,17.2113043 C74.5650679,17.2113043 74.8115872,17.4578236 74.8115872,17.9508696 L74.8115872,18.443913 C74.8115872,18.9252198 74.5650679,19.1658696 74.0720219,19.1658696 L69.8811524,19.1658696 L69.8811524,22.7052174 L73.2972393,22.7052174 C73.7902853,22.7052174 74.0368046,22.9458672 74.0368046,23.4271739 L74.0368046,23.9202174 C74.0368046,24.4132633 73.7902853,24.6597826 73.2972393,24.6597826 L69.8811524,24.6597826 L69.8811524,28.973913 C69.8811524,29.466959 69.6405026,29.7134783 69.1591959,29.7134783 L68.3491959,29.7134783 C67.8678891,29.7134783 67.6272393,29.466959 67.6272393,28.973913 L67.6272393,17.9508696 C67.6272393,17.4578236 67.8678891,17.2113043 68.3491959,17.2113043 L74.0720219,17.2113043 Z M89.8822013,17.2113043 C90.3635081,17.2113043 90.6041579,17.4578236 90.6041579,17.9508696 L90.6041579,18.443913 C90.6041579,18.9252198 90.3635081,19.1658696 89.8822013,19.1658696 L86.5189405,19.1658696 L86.5189405,28.973913 C86.5189405,29.466959 86.2724212,29.7134783 85.7793753,29.7134783 L84.986984,29.7134783 C84.5056772,29.7134783 84.2650274,29.466959 84.2650274,28.973913 L84.2650274,19.1658696 L80.9017666,19.1658696 C80.4087206,19.1658696 80.1622013,18.9252198 80.1622013,18.443913 L80.1622013,17.9508696 C80.1622013,17.4578236 80.4087206,17.2113043 80.9017666,17.2113043 L89.8822013,17.2113043 Z M13.2613043,17.2113043 C14.2239179,17.2113043 15.0984743,17.3521725 15.885,17.633913 C16.6715257,17.9156536 17.3406494,18.3206495 17.8923913,18.848913 C18.4441332,19.3771766 18.8726072,20.0286918 19.1778261,20.8034783 C19.483045,21.5782647 19.6356522,22.4586907 19.6356522,23.4447826 C19.6356522,24.4308745 19.483045,25.3113005 19.1778261,26.086087 C18.8726072,26.8608734 18.4441332,27.5182582 17.8923913,28.0582609 C17.3406494,28.5982636 16.6715257,29.009129 15.885,29.2908696 C15.0984743,29.5726101 14.2239179,29.7134783 13.2613043,29.7134783 L9.72195652,29.7134783 C9.24064977,29.7134783 9,29.466959 9,28.973913 L9,17.9508696 C9,17.4578236 9.24064977,17.2113043 9.72195652,17.2113043 L13.2613043,17.2113043 Z M13.1380435,19.1658696 L11.253913,19.1658696 L11.253913,27.758913 L13.1380435,27.758913 C14.4058759,27.758913 15.415431,27.3920689 16.1667391,26.6583696 C16.9180472,25.9246702 17.2936957,24.8534853 17.2936957,23.4447826 C17.2936957,22.7521705 17.193914,22.138807 16.9943478,21.6046739 C16.7947816,21.0705408 16.5130453,20.6244583 16.1491304,20.266413 C15.7852156,19.9083678 15.3479373,19.6354357 14.8372826,19.4476087 C14.3266279,19.2597817 13.7602205,19.1658696 13.1380435,19.1658696 Z" id="Text" fill="#FFFFFF"></path>
                </g>
            </g>
        </g>
    </g>
</svg>

<svg width="96" height="47" xmlns="http://www.w3.org/2000/svg"><g fill="none" fill-rule="evenodd"><rect fill="#4740E3" x="33" y="9" width="63" height="38" rx="2.817"/><rect fill="#00E0B4" width="63" height="39" rx="2.817"/><path d="M35.817 9H63v27.183A2.817 2.817 0 0160.183 39H33V11.817A2.817 2.817 0 0135.817 9z" fill="#00B8C0"/><path d="M43.808 17a7.83 7.83 0 012.614.431c.347.124.646.25.898.379.253.13.444.24.573.335.364.281.416.622.158 1.02l-.317.494c-.129.2-.276.314-.44.343-.164.03-.358-.02-.581-.15a6.953 6.953 0 00-1.092-.51c-.458-.176-1.021-.264-1.69-.264-.681 0-1.286.114-1.814.343-.528.23-.971.54-1.33.933a4.037 4.037 0 00-.818 1.383 4.956 4.956 0 00-.282 1.673c0 .657.109 1.259.326 1.804a4.23 4.23 0 00.89 1.4 4.048 4.048 0 002.957 1.233c.529 0 .99-.07 1.383-.211s.725-.3.995-.476c.305-.2.569-.428.792-.687V24.73h-2.093c-.493 0-.74-.246-.74-.74v-.475c0-.493.247-.74.74-.74h3.396c.481 0 .722.247.722.74v1.215c0 .778-.065 1.99-.135 2.265-.217.852-1.115 1.596-1.6 1.88-.485.283-.948.548-1.506.702-.558.153-1.725.348-2.323.348a6.06 6.06 0 01-4.314-1.778 6.217 6.217 0 01-1.339-2.026c-.329-.786-.493-1.655-.493-2.606 0-.927.162-1.79.484-2.588a6.218 6.218 0 011.347-2.07 6.207 6.207 0 012.043-1.364c.787-.329 1.65-.493 2.589-.493zm-15.6.211c.482 0 .723.247.723.74v11.023c0 .493-.241.74-.722.74h-.81c-.482 0-.722-.247-.722-.74V17.95c0-.493.24-.74.722-.74h.81zm29.543 0c.481 0 .722.247.722.74v11.023c0 .493-.24.74-.722.74h-.81c-.481 0-.722-.247-.722-.74V17.95c0-.493.24-.74.722-.74h.81zm16.321 0c.493 0 .74.247.74.74v.493c0 .481-.247.722-.74.722h-4.19v3.54h3.415c.493 0 .74.24.74.721v.493c0 .493-.247.74-.74.74h-3.416v4.314c0 .493-.24.74-.722.74h-.81c-.481 0-.722-.247-.722-.74V17.95c0-.493.24-.74.722-.74h5.723zm15.81 0c.482 0 .722.247.722.74v.493c0 .481-.24.722-.722.722H86.52v9.808c0 .493-.247.74-.74.74h-.792c-.481 0-.722-.247-.722-.74v-9.808h-3.363c-.493 0-.74-.24-.74-.722v-.493c0-.493.247-.74.74-.74h8.98zm-76.62 0c.962 0 1.836.141 2.623.423a5.58 5.58 0 012.007 1.215c.552.528.98 1.18 1.286 1.954.305.775.458 1.656.458 2.642s-.153 1.866-.458 2.641a5.58 5.58 0 01-1.286 1.972c-.551.54-1.22.951-2.007 1.233-.787.282-1.661.422-2.624.422H9.722c-.481 0-.722-.246-.722-.74V17.952c0-.493.24-.74.722-.74h3.54zm-.124 1.955h-1.884v8.593h1.884c1.268 0 2.277-.367 3.029-1.1.751-.734 1.127-1.806 1.127-3.214 0-.693-.1-1.306-.3-1.84-.2-.534-.481-.98-.845-1.339a3.63 3.63 0 00-1.312-.818 4.891 4.891 0 00-1.699-.282z" fill="#FFF"/></g></svg>
